svgs/duotone/kerning.svg

<svg xmlns="http://www.w3.org/2000/svg" viewBox="0 0 640 512"><!--! Font Awesome Pro 6.3.0 by @fontawesome - https://fontawesome.com License - https://fontawesome.com/license (Commercial License) Copyright 2023 Fonticons, Inc. --><defs><style>.fa-secondary{opacity:.4}</style></defs><path class="fa-primary" d="M199.1 512c-2.406 0-4.844-.5312-7.141-1.687c-7.906-3.969-11.11-13.56-7.156-21.47l239.1-479.1c3.969-7.875 13.55-11.16 21.47-7.156c7.906 3.969 11.11 13.56 7.156 21.47l-239.1 479.1C211.5 508.8 205.9 512 199.1 512z"/><path class="fa-secondary" d="M302.3 99.38C286.5 91.5 267.3 97.88 259.4 113.7L160 312.4L60.63 113.7C52.73 97.88 33.56 91.5 17.69 99.38C1.875 107.3-4.531 126.5 3.375 142.3l128 256c5.422 10.84 16.5 17.69 28.63 17.69s23.2-6.843 28.62-17.69l128-256C324.5 126.5 318.1 107.3 302.3 99.38zM636.6 369.7l-128-256c-10.84-21.69-46.41-21.69-57.25 0l-128 256c-7.906 15.81-1.5 35.03 14.31 42.94c15.86 7.875 35.02 1.5 42.94-14.31L403.8 352h152.4l23.19 46.31C584.1 409.5 596.3 416 608 416c4.797 0 9.688-1.094 14.28-3.375C638.1 404.7 644.5 385.5 636.6 369.7zM435.8 288L480 199.6L524.2 288H435.8z"/></svg>

<svg xmlns="http://www.w3.org/2000/svg" viewBox="0 0 640 512"><!-- Font Awesome Pro 6.0.0-alpha2 by @fontawesome - https://fontawesome.com License - https://fontawesome.com/license (Commercial License) --><defs><style>.fa-secondary{opacity:.4}</style></defs><path d="M302.325 99.375C286.465 91.5 267.278 97.875 259.387 113.688L160.012 312.438L60.637 113.688C52.746 97.875 33.575 91.5 17.7 99.375C1.887 107.281 -4.519 126.5 3.387 142.312L131.387 398.312C136.809 409.156 147.887 416 160.012 416S183.215 409.156 188.637 398.312L316.637 142.312C324.543 126.5 318.137 107.281 302.325 99.375ZM636.637 369.688L508.637 113.688C497.793 92 462.231 92 451.387 113.688L323.387 369.688C315.481 385.5 321.887 404.719 337.7 412.625C353.559 420.5 372.715 414.125 380.637 398.313L403.793 352H556.231L579.387 398.312C584.996 409.531 596.293 416 608.043 416C612.84 416 617.731 414.906 622.325 412.625C638.137 404.719 644.543 385.5 636.637 369.688ZM435.793 288L480.012 199.562L524.231 288H435.793Z" class="fa-secondary"/><path d="M199.99 512C197.584 512 195.147 511.469 192.85 510.312C184.944 506.344 181.74 496.75 185.694 488.844L425.694 8.844C429.662 0.969 439.24 -2.312 447.162 1.688C455.069 5.656 458.272 15.25 454.319 23.156L214.319 503.156C211.506 508.75 205.865 512 199.99 512Z" class="fa-primary"/></svg>
